src/assets/icons/behance_line.svg

<svg  viewBox="0 0 24 24" fill="none" xmlns="http://www.w3.org/2000/svg">
<path d="M6.66333 11.6517C12.2967 11.6517 12.2967 20 6.66333 20H2V11.6517M6.66333 11.6517H2M6.66333 11.6517C12.2967 11.6517 12.2967 4 6.66333 4H2V11.6517M13.1111 14.4615C13.1111 11.4031 15.1 8.92308 17.5556 8.92308C20.0111 8.92308 22 11.4031 22 14.4615H13.1111ZM13.1111 14.4615C13.1111 17.52 15.1 20 17.5556 20C20.6167 20 21.4444 17.5385 21.4444 17.5385M20.3333 5.23077H14.7778" stroke="currentColor" stroke-linecap="round" stroke-linejoin="round"/>
</svg>

<svg  viewBox="0 0 24 24" fill="none" xmlns="http://www.w3.org/2000/svg">
    <path stroke="currentColor" stroke-linecap="round" stroke-linejoin="round"   d="M6.663 11.652c5.634 0 5.634 8.348 0 8.348H2v-8.348m4.663 0H2m4.663 0c5.634 0 5.634-7.652 0-7.652H2v7.652m11.111 2.81c0-3.059 1.989-5.539 4.445-5.539 2.455 0 4.444 2.48 4.444 5.538h-8.889Zm0 0C13.111 17.52 15.1 20 17.556 20c3.06 0 3.888-2.462 3.888-2.462m-1.11-12.307h-5.556"/>
</svg>
